X: 30
T: Lilting Banshee
R:jig
M:6/8
L:1/8
K: Ador
D|"Am(A5)"EAA EAA|"G"BAB G2A|"Em(Cmaj7)"Bee edB|"G"def gfg|
"Am(A5)"eAA eAA|"G"BAB G2A|"Em(Cmaj7)"Bee edB|"G(D)"dBA "Am(A5)"A2:|
|:d|"Am(A5)"eaa age|"G"dBA G2A|"Em(Cmaj7)"Bee edB|"G"def gfg|
"Am(A5)"eaa age|"G"dBA G2A|"Em(Cmaj7)"Bee edB|"G(D)"dBA  "Am(A5)"A2:|


